src/assets/dominoes.svg

<svg xmlns="http://www.w3.org/2000/svg" width="1600" height="1200" fill="none" xmlns:v="https://vecta.io/nano"><style><![CDATA[.B{fill:#000}.C{stroke:#fff}.D{stroke-width:3}.E{stroke-linecap:round}.F{stroke:#000}.G{stroke-width:2}.H{fill-rule:evenodd}]]></style><g class="B"><path d="M354.5 350c-24.4-12.8-55.833 21-68.5 39.5-10 12.849-22 90 10 81.5s30.5-2.5 46.5 8.5c-12-77.5 92.5-97.5 52.5-90S385 366 354.5 350z" class="F"/><path d="M403 397c-20.5 4.5-60.6 28.1-57 86.5 54 12.5 72.5-92.305 57-86.5zm282.5 143.5c.8-1.2-12.667-11.5-19.5-16.5-3.6 10 5.5 18.833 10.5 22 4-.8 7.667-4 9-5.5zM601 570c-14-3.2-20.833 2-22.5 5 9.2 4.8 22.167 5 27.5 4.5-.5-1.167-2.2-4.7-5-9.5zm6-141l-18-3c.4 5.6 7.833 9.333 11.5 10.5 5.6-2 6.667-5.833 6.5-7.5zm15.5 148l-7.5-22c-7.2 4.4-6 14.167-4.5 18.5 6.4 4 10.667 4 12 3.5z"/></g><path d="M391.5 406c5.333 10.833 39 27.4 131 7l3.07-.01c10.259-.05 29.029-.141 34.43 3.01 3.59 2.094 17.38 6.514 29.273 9.621-.431 2.626 1.409 8.379 12.217 10.379-10.258 4.267-32.092.883-41.49-2.5l-8.657.946c-12.725 1.403-26.823 2.958-28.843 2.554-2.5-.5 19.5 11 22.5 11s43 3.5 43.5 22c.772 1.029 1.573 2.014 2.383 3.01 3.915 4.813 8.046 9.891 10.117 21.49 15.686 5.034 44.115 16.069 64.5 29.122-1.5 7.878-.5 14.378 11 22.024-4.594.648-10.816-.298-19-4.646-3.182-1.69-5.909-3.282-8.48-4.782-10.358-6.045-18.185-10.613-43.02-14.218.488 3.784 2.89 14.578 8.698 32.5-2.799 2.167-7.65 9.4-4.291 19-11.437-6.719-25.958-23.292-31.907-53.433-19.56-.189-40.386 1.786-56 5.612 19.077 14.125 40.752 17.394 51.325 18.988L576 545c14.423 6.657 20.366 15.228 25.113 24.5-6.371-1.167-19.813-1.7-22.613 5.5-16-10-51.667-16.5-67.5-18.5-47.5-2-95-29.5-104.5-38.5-7.437-7.046-39.667-35.333-55.5-48 3.2-34.8 28.333-57.167 40.5-64z" fill="#fff" class="H"/><g class="F G"><path d="M588.5 470c-.5-18.5-40.5-22-43.5-22s-25-11.5-22.5-11c2.02.404 16.118-1.151 28.843-2.554L560 433.5c9.398 3.383 31.232 6.767 41.49 2.5m-12.99 34c-19.6-2.4-38.167-5.333-45-6.5-2.333-.333-8.8-2-16-6m61 12.5c.772 1.029 1.573 2.014 2.383 3.01 3.915 4.813 8.046 9.891 10.117 21.49m0 0c-14-1-28-4-51.5-2-6-1-11 .5-17.5-4.5m69 6.5c15.686 5.034 44.115 16.069 64.5 29.122M606 522c-8.318-1.207-17.752-1.839-27.5-1.933M606 522c.488 3.784 2.89 14.578 8.698 32.5M606 522c24.835 3.605 32.662 8.173 43.02 14.218 2.571 1.5 5.298 3.092 8.48 4.782 8.184 4.348 14.406 5.294 19 4.646m-98-25.579c5.949 30.141 20.47 46.714 31.907 53.433M578.5 520.067c-19.56-.189-40.386 1.786-56 5.612m87.907 47.821c4.904 2.881 9.242 3.95 12.093 3.5-3.104-8.455-5.68-15.953-7.802-22.5m-4.291 19c-3.359-9.6 1.492-16.833 4.291-19M493 408.5c2.5-.833 9.6-2.7 18-3.5m-78.5 138.5c3.167 2.5 13.8 8.3 31 11.5m115 20c-16-10-51.667-16.5-67.5-18.5-47.5-2-95-29.5-104.5-38.5-7.437-7.046-39.667-35.333-55.5-48 3.2-34.8 28.333-57.167 40.5-64 5.333 10.833 39 27.4 131 7l3.07-.01c10.259-.05 29.029-.141 34.43 3.01 3.59 2.094 17.38 6.514 29.273 9.621M578.5 575c2.8-7.2 16.242-6.667 22.613-5.5M578.5 575c1.975.527 3.291 1.088 4.56 1.629 3.551 1.514 6.732 2.871 22.94 2.871l-2.193-4.508-.001-.001-2.693-5.491M522.5 525.679c-5.605 1.373-10.538 2.985-14.5 4.821m14.5-4.821c19.077 14.125 40.752 17.394 51.325 18.988L576 545c14.423 6.657 20.366 15.228 25.113 24.5m-11.84-143.879c7.986 2.086 15.116 3.58 17.727 3.379 0 3.35-2.125 5.592-5.51 7m-12.217-10.379c-.431 2.626 1.409 8.379 12.217 10.379m64.01 87.622c8.639 5.531 15.833 11.425 20 17.378-1.71 1.954-4.613 4.027-9 4.646m-11-22.024c-1.5 7.878-.5 14.378 11 22.024M498 836c11.667-2 39.4-8.7 57-19.5M412 844c28.667 6.667 98.4 12 148-20"/><path d="M1345.5 574.5l-666 382-70.5-78L859 597l269-155 217.5 132.5z" fill="#111"/></g><path d="M636 967.5l-78.5-44 17.325-80 16.675-77 43.5-12 4 2.271.37-27.271 1.63-120 45.5-26.5 10 5.973L699 445.5l44.5-26.5 21.5 12.676L768 277l39.5-23 193 111v228 178.5l-41.5 24-62-35.5v71.5l-47 26-53-31.5v62l-45.5 26.5L714 892l-1.5-93.5-16.271 76.5L679 956l-43 11.5z" fill="#fff"/><path d="M591.5 766.5L669 810m-77.5-43.5l43.5-12 4 2.271m-47.5 9.729l-16.675 77M669 810l43.5-11.5M669 810l-16.133 77M636 967.5l-78.5-44 17.325-80M636 967.5l43-11.5 17.229-81M636 967.5l16.867-80.5m59.633-88.5L696.229 875m16.271-76.5L639 756.771m73.5 41.729L714 892l37.5 22.5m-176.675-71l78.042 43.5m0 0l43.362-12m-7.729-62c-14.5 4-14 0-17 21.5m80 80L797 888v-62m-45.5 88.5l.25-119.5M797 649l-45 26.5m45-26.5v14.5m0-14.5l-100.5-60.027M752 675.5l-.25 119.5m.25-119.5l-111-66M751.75 795L797 770.5M751.75 795l-112.38-65.5m157.63 41V826m0-55.5v-107m-156-54l45.5-26.5 10 5.973M641 609.5l-1.63 120m-.37 27.271l.37-27.271M759.5 714v7m0-17.5c-1-28.5 2-22.5 20-34.5m8.5 196c1.5 17 1.5 17.5-15.5 27m77.5-34.5l47-26V760m-47 97.5L797 826m53 31.5l.762-163.5M897 509.5l-45.5 26m45.5-26l-132-77.824M897 509.5v70m-45.5-44l-.738 158.5m.738-158.5l-152.5-90M850.762 694L897 670.5M850.762 694L797 663.5m100 7V760m0-89.5v-91m-198-134l44.5-26.5 21.5 12.676M699 445.5l-2.5 143.473M888.5 809c1 15.5-2 19-15.5 26m5-305.5c-17 14.5-22 3.429-19 61.5m100 204.5l41.5-24V593M959 795.5L897 760m62 35.5l.668-181.5m40.832-249l-40 23m40-23l-193-111-39.5 23m232.5 88v228m-40-205L768 277m192.5 111l-.832 226M768 277l-3 154.676M1000.5 593l-40.832 21m0 0L897 579.5m89.5-198c-26.022 12.5-19 20.5-20 61.5m25 309c0 13 2 16-16 24.5" stroke-linejoin="round" class="F G"/><ellipse cx="595.869" cy="816.02" rx="13.567" ry="24.5" transform="rotate(16.47 595.869 816.02)" class="B"/><g class="F G"><circle cx="587" cy="803" r="22" fill="#fff"/><path d="M598 563c13.5 11.833 28.591 49.747-3 115-30.5 63-21.5 95.5-14 114"/></g><ellipse cx="695.763" cy="703.406" rx="11.279" ry="18.645" transform="rotate(331.16 695.763 703.406)" class="B"/><path d="M687.5 698.5c2 6.833 9.5 20 23.5 18" class="C D E"/><ellipse cx="749.874" cy="532.773" rx="11.279" ry="18.645" transform="rotate(331.16 749.874 532.773)" class="B"/><path d="M741.611 527.867c2 6.833 9.5 20 23.5 18" class="C D E"/><ellipse cx="797.874" cy="607.773" rx="11.279" ry="18.645" transform="rotate(331.16 797.874 607.773)" class="B"/><path d="M788.5 591.5c-3 17.5 10.611 31.367 24.611 29.367" class="C D E"/><ellipse rx="12.791" ry="20.924" transform="matrix(.8799 -.475127 .489643 .8719 862.5 447.321)" class="B"/><path d="M851.822 429.144c-3.418 19.547 12.088 35.037 28.036 32.803" class="C D E"/><ellipse cx="824.126" cy="378.372" rx="12.625" ry="20.87" transform="rotate(331.16 824.126 378.372)" class="B"/><path d="M814.878 372.88c2.238 7.649 10.633 22.386 26.304 20.148" class="C D E"/><path d="M798 785.579c3.169 1.62 6.34 1.919 8.868.527a7.1 7.1 0 0 0 1.95-1.588c-4.282-.317-7.884-2.002-10.818-4.314v5.375zm0-9.382c3.147 3.135 7.264 5.429 12.482 5.373 1.57-4.462.694-11.022-2.728-17.237-2.605-4.731-6.168-8.321-9.754-10.234v22.098zm100-60.104c4.015 1.806 8.031 2.14 11.234.588 1.014-.492 1.891-1.145 2.628-1.935-5.502-.335-10.115-2.276-13.862-4.952v6.299zm0-10.098c3.974 3.367 9.176 5.845 15.741 5.802 2.086-4.977 1.001-12.38-3.385-19.389-3.3-5.273-7.813-9.276-12.356-11.408v24.995zm-8.545-201.044L897 509.5v6.462c4.19 3.6 9.417 5.7 14.803 5.698 1.869-4.987.893-12.399-3.048-19.416-5.37-9.562-14.312-14.955-20.523-12.612a1.49 1.49 0 0 1 .067.77c-.922 5.278-.401 10.22 1.156 14.549zm-3.79-2.286c-.799-3.392-1.042-7.042-.601-10.849-1.864 2.09-2.799 5.204-2.783 8.809l3.384 2.04zM897 525.638c3.822 2.101 7.694 2.575 10.745.927a8.09 8.09 0 0 0 2.38-1.957c-4.734-.324-9.252-2.045-13.125-4.823v5.853z" class="B H"/><g fill="#fff"><circle cx="1074" cy="537" r="11"/><circle cx="1138" cy="621" r="3"/><circle cx="1059" cy="711" r="4"/><circle cx="1126.5" cy="489.5" r="3.5"/><circle cx="1270.5" cy="576.5" r="2.5"/><path d="M1196.5 532l-9 22.5-23 7.5 23 9 7.5 22.5 9-22.5 22-7.5-22-9-7.5-22.5zm-157.49 74l-3.66 9.146-9.35 3.049 9.35 3.659 3.05 9.146 3.66-9.146 8.94-3.049-8.94-3.659-3.05-9.146z"/></g></svg>

<svg width="1600" height="1200" viewBox="0 0 1600 1200" fill="none" xmlns="http://www.w3.org/2000/svg">
<path d="M354.5 350C330.1 337.2 298.667 371 286 389.5C276 402.349 264 479.5 296 471C328 462.5 326.5 468.5 342.5 479.5C330.5 402 435 382 395 389.5C355 397 385 366 354.5 350Z" fill="black" stroke="black"/>
<path d="M403 397C382.5 401.5 342.4 425.1 346 483.5C400 496 418.5 391.195 403 397Z" fill="black"/>
<path d="M685.5 540.5C686.3 539.3 672.833 529 666 524C662.4 534 671.5 542.833 676.5 546C680.5 545.2 684.167 542 685.5 540.5Z" fill="black"/>
<path d="M601 570C587 566.8 580.167 572 578.5 575C587.7 579.8 600.667 580 606 579.5C605.5 578.333 603.8 574.8 601 570Z" fill="black"/>
<path d="M607 429L589 426C589.4 431.6 596.833 435.333 600.5 436.5C606.1 434.5 607.167 430.667 607 429Z" fill="black"/>
<path d="M622.5 577L615 555C607.8 559.4 609 569.167 610.5 573.5C616.9 577.5 621.167 577.5 622.5 577Z" fill="black"/>
<path fill-rule="evenodd" clip-rule="evenodd" d="M391.5 406C396.833 416.833 430.5 433.4 522.5 413C523.399 413 524.432 412.995 525.57 412.99C535.829 412.94 554.599 412.849 560 416C563.59 418.094 577.38 422.514 589.273 425.621C588.842 428.247 590.682 434 601.49 436C591.232 440.267 569.398 436.883 560 433.5C557.312 433.788 554.366 434.113 551.343 434.446C538.618 435.849 524.52 437.404 522.5 437C520 436.5 542 448 545 448C548 448 588 451.5 588.5 470C589.272 471.029 590.073 472.014 590.883 473.01C594.798 477.823 598.929 482.901 601 494.5C616.686 499.534 645.115 510.569 665.5 523.622C664 531.5 665 538 676.5 545.646C671.906 546.294 665.684 545.348 657.5 541C654.318 539.31 651.591 537.718 649.02 536.218C638.662 530.173 630.835 525.605 606 522C606.488 525.784 608.89 536.578 614.698 554.5C611.899 556.667 607.048 563.9 610.407 573.5C598.97 566.781 584.449 550.208 578.5 520.067C558.94 519.878 538.114 521.853 522.5 525.679C541.577 539.804 563.252 543.073 573.825 544.667C574.614 544.786 575.341 544.896 576 545C590.423 551.657 596.366 560.228 601.113 569.5C594.742 568.333 581.3 567.8 578.5 575C562.5 565 526.833 558.5 511 556.5C463.5 554.5 416 527 406.5 518C399.063 510.954 366.833 482.667 351 470C354.2 435.2 379.333 412.833 391.5 406Z" fill="white"/>
<path d="M588.5 470C588 451.5 548 448 545 448C542 448 520 436.5 522.5 437C524.52 437.404 538.618 435.849 551.343 434.446C554.366 434.113 557.312 433.788 560 433.5C569.398 436.883 591.232 440.267 601.49 436M588.5 470C568.9 467.6 550.333 464.667 543.5 463.5C541.167 463.167 534.7 461.5 527.5 457.5M588.5 470C589.272 471.029 590.073 472.014 590.883 473.01C594.798 477.823 598.929 482.901 601 494.5M601 494.5C587 493.5 573 490.5 549.5 492.5C543.5 491.5 538.5 493 532 488M601 494.5C616.686 499.534 645.115 510.569 665.5 523.622M606 522C597.682 520.793 588.248 520.161 578.5 520.067M606 522C606.488 525.784 608.89 536.578 614.698 554.5M606 522C630.835 525.605 638.662 530.173 649.02 536.218C651.591 537.718 654.318 539.31 657.5 541C665.684 545.348 671.906 546.294 676.5 545.646M578.5 520.067C584.449 550.208 598.97 566.781 610.407 573.5M578.5 520.067C558.94 519.878 538.114 521.853 522.5 525.679M610.407 573.5C615.311 576.381 619.649 577.45 622.5 577C619.396 568.545 616.82 561.047 614.698 554.5M610.407 573.5C607.048 563.9 611.899 556.667 614.698 554.5M493 408.5C495.5 407.667 502.6 405.8 511 405M432.5 543.5C435.667 546 446.3 551.8 463.5 555M578.5 575C562.5 565 526.833 558.5 511 556.5C463.5 554.5 416 527 406.5 518C399.063 510.954 366.833 482.667 351 470C354.2 435.2 379.333 412.833 391.5 406C396.833 416.833 430.5 433.4 522.5 413C523.399 413 524.432 412.995 525.57 412.99C535.829 412.94 554.599 412.849 560 416C563.59 418.094 577.38 422.514 589.273 425.621M578.5 575C581.3 567.8 594.742 568.333 601.113 569.5M578.5 575C580.475 575.527 581.791 576.088 583.06 576.629C586.611 578.143 589.792 579.5 606 579.5C605.245 577.989 604.523 576.485 603.807 574.992L603.806 574.991C602.918 573.14 602.038 571.307 601.113 569.5M522.5 525.679C516.895 527.052 511.962 528.664 508 530.5M522.5 525.679C541.577 539.804 563.252 543.073 573.825 544.667C574.614 544.786 575.341 544.896 576 545C590.423 551.657 596.366 560.228 601.113 569.5M589.273 425.621C597.259 427.707 604.389 429.201 607 429C607 432.35 604.875 434.592 601.49 436M589.273 425.621C588.842 428.247 590.682 434 601.49 436M665.5 523.622C674.139 529.153 681.333 535.047 685.5 541C683.79 542.954 680.887 545.027 676.5 545.646M665.5 523.622C664 531.5 665 538 676.5 545.646" stroke="black" stroke-width="2"/>
<path d="M498 836C509.667 834 537.4 827.3 555 816.5" stroke="black" stroke-width="2"/>
<path d="M412 844C440.667 850.667 510.4 856 560 824" stroke="black" stroke-width="2"/>
<path d="M1345.5 574.5L679.5 956.5L609 878.5L859 597L1128 442L1345.5 574.5Z" fill="#111111" stroke="black" stroke-width="2"/>
<path d="M636 967.5L557.5 923.5L574.825 843.5L591.5 766.5L635 754.5L639 756.771L639.37 729.5L641 609.5L686.5 583L696.5 588.973L699 445.5L743.5 419L765 431.676L768 277L807.5 254L1000.5 365V593V771.5L959 795.5L897 760V831.5L850 857.5L797 826V888L751.5 914.5L714 892L712.5 798.5L696.229 875L679 956L636 967.5Z" fill="white"/>
<path d="M591.5 766.5L669 810M591.5 766.5L635 754.5L639 756.771M591.5 766.5L574.825 843.5M669 810L712.5 798.5M669 810L652.867 887M636 967.5L557.5 923.5L574.825 843.5M636 967.5L679 956L696.229 875M636 967.5L652.867 887M712.5 798.5L696.229 875M712.5 798.5L639 756.771M712.5 798.5L714 892L751.5 914.5M574.825 843.5L652.867 887M652.867 887L696.229 875M688.5 813C674 817 674.5 813 671.5 834.5M751.5 914.5L797 888V826M751.5 914.5L751.75 795M797 649L752 675.5M797 649V663.5M797 649L696.5 588.973M752 675.5L751.75 795M752 675.5L641 609.5M751.75 795L797 770.5M751.75 795L639.37 729.5M797 770.5V826M797 770.5V663.5M641 609.5L686.5 583L696.5 588.973M641 609.5L639.37 729.5M639 756.771L639.37 729.5M759.5 714V721M759.5 703.5C758.5 675 761.5 681 779.5 669M788 865C789.5 882 789.5 882.5 772.5 892M850 857.5L897 831.5V760M850 857.5L797 826M850 857.5L850.762 694M897 509.5L851.5 535.5M897 509.5L765 431.676M897 509.5V579.5M851.5 535.5L850.762 694M851.5 535.5L699 445.5M850.762 694L897 670.5M850.762 694L797 663.5M897 670.5V760M897 670.5V579.5M699 445.5L743.5 419L765 431.676M699 445.5L696.5 588.973M888.5 809C889.5 824.5 886.5 828 873 835M878 529.5C861 544 856 532.929 859 591M959 795.5L1000.5 771.5V593M959 795.5L897 760M959 795.5L959.668 614M1000.5 365L960.5 388M1000.5 365L807.5 254L768 277M1000.5 365V593M960.5 388L768 277M960.5 388L959.668 614M768 277L765 431.676M1000.5 593L959.668 614M959.668 614L897 579.5M986.5 381.5C960.478 394 967.5 402 966.5 443M991.5 752C991.5 765 993.5 768 975.5 776.5" stroke="black" stroke-width="2" stroke-linejoin="round"/>
<ellipse cx="595.869" cy="816.02" rx="13.5669" ry="24.5" transform="rotate(16.4703 595.869 816.02)" fill="black"/>
<circle cx="587" cy="803" r="22" fill="white" stroke="black" stroke-width="2"/>
<path d="M598 563C611.5 574.833 626.591 612.747 595 678C564.5 741 573.5 773.5 581 792" stroke="black" stroke-width="2"/>
<ellipse cx="695.763" cy="703.406" rx="11.279" ry="18.6453" transform="rotate(-28.8399 695.763 703.406)" fill="black"/>
<path d="M687.5 698.5C689.5 705.333 697 718.5 711 716.5" stroke="white" stroke-width="3" stroke-linecap="round"/>
<ellipse cx="749.874" cy="532.773" rx="11.279" ry="18.6453" transform="rotate(-28.8399 749.874 532.773)" fill="black"/>
<path d="M741.611 527.867C743.611 534.7 751.111 547.867 765.111 545.867" stroke="white" stroke-width="3" stroke-linecap="round"/>
<ellipse cx="797.874" cy="607.773" rx="11.279" ry="18.6453" transform="rotate(-28.8399 797.874 607.773)" fill="black"/>
<path d="M788.5 591.5C785.5 609 799.111 622.867 813.111 620.867" stroke="white" stroke-width="3" stroke-linecap="round"/>
<ellipse rx="12.7907" ry="20.9238" transform="matrix(0.879917 -0.475127 0.489643 0.871923 862.5 447.321)" fill="black"/>
<path d="M851.822 429.144C848.404 448.691 863.91 464.181 879.858 461.947" stroke="white" stroke-width="3" stroke-linecap="round"/>
<ellipse cx="824.126" cy="378.372" rx="12.6249" ry="20.8703" transform="rotate(-28.8399 824.126 378.372)" fill="black"/>
<path d="M814.878 372.88C817.116 380.529 825.511 395.266 841.182 393.028" stroke="white" stroke-width="3" stroke-linecap="round"/>
<path fill-rule="evenodd" clip-rule="evenodd" d="M798 785.579C801.169 787.199 804.34 787.498 806.868 786.106C807.612 785.696 808.263 785.16 808.818 784.518C804.536 784.201 800.934 782.516 798 780.204V785.579ZM798 776.197C801.147 779.332 805.264 781.626 810.482 781.57C812.052 777.108 811.176 770.548 807.754 764.333C805.149 759.602 801.586 756.012 798 754.099V776.197Z" fill="black"/>
<path fill-rule="evenodd" clip-rule="evenodd" d="M898 716.093C902.015 717.899 906.031 718.233 909.234 716.681C910.248 716.189 911.125 715.536 911.862 714.746C906.36 714.411 901.747 712.47 898 709.794V716.093ZM898 705.995C901.974 709.362 907.176 711.84 913.741 711.797C915.827 706.82 914.742 699.417 910.356 692.408C907.056 687.135 902.543 683.132 898 681V705.995Z" fill="black"/>
<path fill-rule="evenodd" clip-rule="evenodd" d="M889.455 504.951L897 509.5V515.962C901.19 519.562 906.417 521.662 911.803 521.66C913.672 516.673 912.696 509.261 908.755 502.244C903.385 492.682 894.443 487.289 888.232 489.632C888.319 489.87 888.346 490.134 888.299 490.402C887.377 495.68 887.898 500.622 889.455 504.951ZM885.665 502.665C884.866 499.273 884.623 495.623 885.064 491.816C883.2 493.906 882.265 497.02 882.281 500.625L885.665 502.665ZM897 525.638C900.822 527.739 904.694 528.213 907.745 526.565C908.665 526.069 909.458 525.407 910.125 524.608C905.391 524.284 900.873 522.563 897 519.785V525.638Z" fill="black"/>
<circle cx="1074" cy="537" r="11" fill="white"/>
<circle cx="1138" cy="621" r="3" fill="white"/>
<circle cx="1059" cy="711" r="4" fill="white"/>
<circle cx="1126.5" cy="489.5" r="3.5" fill="white"/>
<circle cx="1270.5" cy="576.5" r="2.5" fill="white"/>
<path d="M1196.5 532L1187.5 554.5L1164.5 562L1187.5 571L1195 593.5L1204 571L1226 563.5L1204 554.5L1196.5 532Z" fill="white"/>
<path d="M1039.01 606L1035.35 615.146L1026 618.195L1035.35 621.854L1038.4 631L1042.06 621.854L1051 618.805L1042.06 615.146L1039.01 606Z" fill="white"/>
</svg>
